X:77
T:Humours of Whiskey, The
R:slip jig
H:See also #40, #37
B:CRE 1 #66
Z:id:hn-slipjig-77
M:9/8
K:Em
BcA BEE BEE | BcA BEE FED | BcA BEE BEE | FAA ABG FED :|
|: G2A BcA BcA | G2A Bcd ecA | G2A BcA Bcd | ecA A2G FED :|
<end>
<start>
